packages/foundations/assets/icons/functional/images/navigation/menu_28.svg

<svg width="28" height="28" viewBox="0 0 28 28" fill="none" xmlns="http://www.w3.org/2000/svg">
<g clip-path="url(#clip0_187_83)">
<path fill-rule="evenodd" clip-rule="evenodd" d="M4.375 20.1111C4.375 19.6944 4.62105 19.25 5.25 19.25H22.75C23.2422 19.25 23.625 19.639 23.625 20.1389C23.625 20.5556 23.379 21 22.75 21H5.25C4.75781 21 4.375 20.6111 4.375 20.1111ZM4.375 13.9861C4.375 13.5694 4.62105 13.125 5.25 13.125H19.25C19.7422 13.125 20.125 13.514 20.125 14.0139C20.125 14.4306 19.879 14.875 19.25 14.875H5.25C4.75781 14.875 4.375 14.4861 4.375 13.9861ZM4.375 7.86113C4.375 7.44443 4.62105 7 5.25 7H22.75C23.2422 7 23.625 7.38888 23.625 7.88887C23.625 8.30557 23.379 8.75 22.75 8.75H5.25C4.75781 8.75 4.375 8.36103 4.375 7.86113Z" fill="#1A1C1F"/>
</g>
<defs>
<clipPath id="clip0_187_83">
<rect width="28" height="28" fill="white"/>
</clipPath>
</defs>
</svg>

<svg xmlns="http://www.w3.org/2000/svg" width="28" height="28" fill="none"><g clip-path="url(#a)"><path fill="#1A1C1F" fill-rule="evenodd" d="M4.375 20.111c0-.417.246-.861.875-.861h17.5a.87.87 0 0 1 .875.889c0 .417-.246.861-.875.861H5.25a.87.87 0 0 1-.875-.889m0-6.125c0-.417.246-.861.875-.861h14a.87.87 0 0 1 .875.889c0 .417-.246.861-.875.861h-14a.87.87 0 0 1-.875-.889m0-6.125c0-.417.246-.861.875-.861h17.5a.87.87 0 0 1 .875.889c0 .417-.246.861-.875.861H5.25a.87.87 0 0 1-.875-.889" clip-rule="evenodd"/></g><defs><clipPath id="a"><path fill="#fff" d="M0 0h28v28H0z"/></clipPath></defs></svg>
